svg/email_alert_outline.svg

<svg xmlns="http://www.w3.org/2000/svg" viewBox="0 0 24 24"><path d="M24 7h-2v6h2zm0 8h-2v2h2zm-4-9c0-1.1-.9-2-2-2H2C.9 4 0 4.9 0 6v12c0 1.1.9 2 2 2h16c1.1 0 2-.9 2-2zm-2 0-8 5-8-5zm0 12H2V8l8 5 8-5z"/></svg>

<?xml version="1.0" encoding="UTF-8"?><!DOCTYPE svg PUBLIC "-//W3C//DTD SVG 1.1//EN" "http://www.w3.org/Graphics/SVG/1.1/DTD/svg11.dtd"><svg xmlns="http://www.w3.org/2000/svg" xmlns:xlink="http://www.w3.org/1999/xlink" version="1.1" id="mdi-email-alert-outline" width="24" height="24" viewBox="0 0 24 24"><path d="M24 7H22V13H24V7M24 15H22V17H24V15M20 6C20 4.9 19.1 4 18 4H2C.9 4 0 4.9 0 6V18C0 19.1 .9 20 2 20H18C19.1 20 20 19.1 20 18V6M18 6L10 11L2 6H18M18 18H2V8L10 13L18 8V18Z" /></svg>
